apps/32/application-default-icon.svg

<?xml version="1.0" encoding="UTF-8" standalone="no"?>
<!-- Created with Inkscape (http://www.inkscape.org/) -->

<svg
   xmlns:svg="http://www.w3.org/2000/svg"
   xmlns="http://www.w3.org/2000/svg"
   xmlns:xlink="http://www.w3.org/1999/xlink"
   version="1.0"
   width="32"
   height="32"
   id="svg2636">
  <defs
     id="defs2638">
    <linearGradient
       id="linearGradient3702-501-757">
      <stop
         id="stop2895"
         style="stop-color:#181818;stop-opacity:0"
         offset="0" />
      <stop
         id="stop2897"
         style="stop-color:#181818;stop-opacity:1"
         offset="0.5" />
      <stop
         id="stop2899"
         style="stop-color:#181818;stop-opacity:0"
         offset="1" />
    </linearGradient>
    <linearGradient
       x1="25.058096"
       y1="47.027729"
       x2="25.058096"
       y2="39.999443"
       id="linearGradient2487"
       xlink:href="#linearGradient3702-501-757"
       gradientUnits="userSpaceOnUse" />
    <linearGradient
       id="linearGradient3688-464-309">
      <stop
         id="stop2889"
         style="stop-color:#181818;stop-opacity:1"
         offset="0" />
      <stop
         id="stop2891"
         style="stop-color:#181818;stop-opacity:0"
         offset="1" />
    </linearGradient>
    <radialGradient
       cx="4.9929786"
       cy="43.5"
       r="2.5"
       fx="4.9929786"
       fy="43.5"
       id="radialGradient2485"
       xlink:href="#linearGradient3688-464-309"
       gradientUnits="userSpaceOnUse"
       gradientTransform="matrix(2.003784,0,0,1.4,-20.01187,-104.4)" />
    <linearGradient
       id="linearGradient3688-166-749">
      <stop
         id="stop2883"
         style="stop-color:#181818;stop-opacity:1"
         offset="0" />
      <stop
         id="stop2885"
         style="stop-color:#181818;stop-opacity:0"
         offset="1" />
    </linearGradient>
    <radialGradient
       cx="4.9929786"
       cy="43.5"
       r="2.5"
       fx="4.9929786"
       fy="43.5"
       id="radialGradient2483"
       xlink:href="#linearGradient3688-166-749"
       gradientUnits="userSpaceOnUse"
       gradientTransform="matrix(2.003784,0,0,1.4,27.98813,-17.4)" />
    <linearGradient
       id="linearGradient2490-654-721">
      <stop
         id="stop2913"
         style="stop-color:#545454;stop-opacity:1"
         offset="0" />
      <stop
         id="stop2915"
         style="stop-color:#a4a4a4;stop-opacity:1"
         offset="1" />
    </linearGradient>
    <linearGradient
       x1="24"
       y1="44"
       x2="24"
       y2="3.8990016"
       id="linearGradient2476"
       xlink:href="#linearGradient2490-654-721"
       gradientUnits="userSpaceOnUse"
       gradientTransform="matrix(0.6410255,0,0,0.6410257,0.6153848,1.6153837)" />
    <linearGradient
       id="linearGradient3242-52-665">
      <stop
         id="stop2903"
         style="stop-color:#d3d3d3;stop-opacity:1"
         offset="0" />
      <stop
         id="stop2905"
         style="stop-color:#b1b1b1;stop-opacity:1"
         offset="0.26238" />
      <stop
         id="stop2907"
         style="stop-color:#8e8e8e;stop-opacity:1"
         offset="0.66093999" />
      <stop
         id="stop2909"
         style="stop-color:#525252;stop-opacity:1"
         offset="1" />
    </linearGradient>
    <radialGradient
       cx="7.4956832"
       cy="8.4497671"
       r="19.99999"
       fx="7.4956832"
       fy="8.4497671"
       id="radialGradient2474"
       xlink:href="#linearGradient3242-52-665"
       gradientUnits="userSpaceOnUse"
       gradientTransform="matrix(0,1.4742091,-1.9732082,-6.2205769e-8,32.673221,-6.1767839)" />
    <linearGradient
       id="linearGradient3308-4-6-931-761">
      <stop
         id="stop2919"
         style="stop-color:white;stop-opacity:1"
         offset="0" />
      <stop
         id="stop2921"
         style="stop-color:white;stop-opacity:0"
         offset="1" />
    </linearGradient>
    <linearGradient
       x1="23.99999"
       y1="4.999989"
       x2="23.99999"
       y2="43"
       id="linearGradient2471"
       xlink:href="#linearGradient3308-4-6-931-761"
       gradientUnits="userSpaceOnUse"
       gradientTransform="matrix(0.6216218,0,0,0.6216214,1.0810803,2.0810865)" />
  </defs>
  <g
     id="layer1">
    <g
       transform="matrix(0.6999989,0,0,0.2796123,-0.7999806,17.85823)"
       id="g2036"
       style="display:inline">
      <g
         transform="matrix(1.052632,0,0,1.285713,-1.263158,-13.42854)"
         id="g3712"
         style="opacity:0.4">
        <rect
           width="5"
           height="7"
           x="38"
           y="40"
           id="rect2801"
           style="fill:url(#radialGradient2483);fill-opacity:1;stroke:none" />
        <rect
           width="5"
           height="7"
           x="-10"
           y="-47"
           transform="scale(-1,-1)"
           id="rect3696"
           style="fill:url(#radialGradient2485);fill-opacity:1;stroke:none" />
        <rect
           width="28"
           height="7.0000005"
           x="10"
           y="40"
           id="rect3700"
           style="fill:url(#linearGradient2487);fill-opacity:1;stroke:none" />
      </g>
    </g>
    <rect
       width="25.000002"
       height="25"
       rx="1.8164496"
       ry="1.8164496"
       x="3.5000002"
       y="4.5"
       id="rect5505"
       style="fill:url(#radialGradient2474);fill-opacity:1;stroke:url(#linearGradient2476);stroke-width:1;stroke-linecap:round;stroke-linejoin:round;stroke-miterlimit:4;stroke-opacity:1;stroke-dasharray:none;stroke-dashoffset:0" />
    <rect
       width="23"
       height="23"
       rx="0.84863389"
       ry="0.84863323"
       x="4.5"
       y="5.4999995"
       id="rect6741"
       style="opacity:0.4;fill:none;stroke:url(#linearGradient2471);stroke-width:0.9999997;stroke-linecap:round;stroke-linejoin:round;stroke-miterlimit:4;stroke-opacity:1;stroke-dasharray:none;stroke-dashoffset:0" />
    <path
       d="m 16.579363,21.069877 c -0.04205,-1.483961 0.294237,-2.92457 1.712368,-3.945009 1.49791,-1.15405 2.940515,-2.597925 2.788062,-4.299926 -0.03329,-1.641426 -1.967786,-2.9276634 -4.052069,-3.1126004 -2.344478,-0.3211 -5.181282,0.4729364 -5.966901,2.2830644 -0.398447,0.880385 -0.02895,2.459898 1.308231,2.459898 0.782123,0 1.141357,-0.499487 1.200373,-0.956399 0.04465,-0.345713 -0.09891,-0.654432 -0.183697,-0.939995 -0.09661,-0.32538 0.315798,-0.956 0.764961,-1.212939 0.375329,-0.214705 0.768017,-0.286698 0.825901,-0.300451 1.347909,-0.320253 2.69158,0.387143 3.252182,1.248132 0.560604,0.86099 -0.05645,2.166945 -0.943634,3.436935 -0.887181,1.269988 -1.839287,2.712438 -1.835484,4.244556 0,0.583279 -0.05257,0.781432 -0.01521,1.01741 0.02984,0.188542 0.661324,0.165758 1.144924,0.07732 l -2e-6,0 z m -0.615143,1.997332 c -1.288813,-0.06917 -2.180851,1.37527 -1.406596,2.295575 0.691447,1.016106 2.630104,0.765273 2.962389,-0.385367 0.345455,-0.894769 -0.48589,-1.925143 -1.555792,-1.910209 l -1e-6,10e-7 z"
       id="path3298"
       style="font-size:72px;font-style:normal;font-weight:bold;opacity:0.4;fill:white;fill-opacity:1;stroke:none;font-family:Standard Symbols L" />
    <path
       d="m 16.579363,20.069876 c -0.04205,-1.483961 0.294237,-2.92457 1.712368,-3.945008 1.49791,-1.154051 2.940515,-2.597925 2.788062,-4.299926 -0.03329,-1.641428 -1.967786,-2.9276645 -4.052069,-3.1126025 -2.344478,-0.321098 -5.181282,0.472936 -5.966901,2.2830645 -0.398447,0.880385 -0.02895,2.459898 1.308231,2.459898 0.782123,0 1.141357,-0.499486 1.200373,-0.956398 0.04465,-0.345713 -0.09891,-0.654432 -0.183697,-0.939995 -0.09661,-0.32538 0.315798,-0.956001 0.764961,-1.21294 0.375329,-0.214704 0.768017,-0.286698 0.825901,-0.300452 1.347909,-0.3202535 2.69158,0.387146 3.252182,1.248136 0.560604,0.860989 -0.05645,2.166942 -0.943634,3.436932 -0.887181,1.269989 -1.839287,2.712439 -1.835484,4.244557 0,0.583278 -0.05257,0.78143 -0.01521,1.01741 0.02984,0.188542 0.661324,0.165758 1.144924,0.07732 l -2e-6,0 z m -0.615143,1.997333 c -1.288813,-0.06917 -2.180851,1.375269 -1.406596,2.295574 0.691447,1.016108 2.630104,0.765274 2.962389,-0.385367 0.345455,-0.894769 -0.48589,-1.925144 -1.555792,-1.910208 l -1e-6,10e-7 z"
       id="path9053"
       style="font-size:72px;font-style:normal;font-weight:bold;opacity:0.4;fill:black;fill-opacity:1;stroke:none;font-family:Standard Symbols L" />
  </g>
</svg>

<?xml version="1.0" encoding="UTF-8" standalone="no"?>
<!-- Created with Inkscape (http://www.inkscape.org/) -->
<svg
   xmlns:svg="http://www.w3.org/2000/svg"
   xmlns="http://www.w3.org/2000/svg"
   xmlns:xlink="http://www.w3.org/1999/xlink"
   version="1.0"
   width="32"
   height="32"
   id="svg2636">
  <defs
     id="defs2638">
    <linearGradient
       id="linearGradient3702-501-757">
      <stop
         id="stop2895"
         style="stop-color:#181818;stop-opacity:0"
         offset="0" />
      <stop
         id="stop2897"
         style="stop-color:#181818;stop-opacity:1"
         offset="0.5" />
      <stop
         id="stop2899"
         style="stop-color:#181818;stop-opacity:0"
         offset="1" />
    </linearGradient>
    <linearGradient
       x1="25.058096"
       y1="47.027729"
       x2="25.058096"
       y2="39.999443"
       id="linearGradient2487"
       xlink:href="#linearGradient3702-501-757"
       gradientUnits="userSpaceOnUse" />
    <linearGradient
       id="linearGradient3688-464-309">
      <stop
         id="stop2889"
         style="stop-color:#181818;stop-opacity:1"
         offset="0" />
      <stop
         id="stop2891"
         style="stop-color:#181818;stop-opacity:0"
         offset="1" />
    </linearGradient>
    <radialGradient
       cx="4.9929786"
       cy="43.5"
       r="2.5"
       fx="4.9929786"
       fy="43.5"
       id="radialGradient2485"
       xlink:href="#linearGradient3688-464-309"
       gradientUnits="userSpaceOnUse"
       gradientTransform="matrix(2.003784,0,0,1.4,-20.01187,-104.4)" />
    <linearGradient
       id="linearGradient3688-166-749">
      <stop
         id="stop2883"
         style="stop-color:#181818;stop-opacity:1"
         offset="0" />
      <stop
         id="stop2885"
         style="stop-color:#181818;stop-opacity:0"
         offset="1" />
    </linearGradient>
    <radialGradient
       cx="4.9929786"
       cy="43.5"
       r="2.5"
       fx="4.9929786"
       fy="43.5"
       id="radialGradient2483"
       xlink:href="#linearGradient3688-166-749"
       gradientUnits="userSpaceOnUse"
       gradientTransform="matrix(2.003784,0,0,1.4,27.98813,-17.4)" />
    <linearGradient
       id="linearGradient2490-654-721">
      <stop
         id="stop2913"
         style="stop-color:#545454;stop-opacity:1"
         offset="0" />
      <stop
         id="stop2915"
         style="stop-color:#a4a4a4;stop-opacity:1"
         offset="1" />
    </linearGradient>
    <linearGradient
       x1="24"
       y1="44"
       x2="24"
       y2="3.8990016"
       id="linearGradient2476"
       xlink:href="#linearGradient2490-654-721"
       gradientUnits="userSpaceOnUse"
       gradientTransform="matrix(0.6410255,0,0,0.6410257,0.6153848,1.6153837)" />
    <linearGradient
       id="linearGradient3242-52-665">
      <stop
         id="stop2903"
         style="stop-color:#d3d3d3;stop-opacity:1"
         offset="0" />
      <stop
         id="stop2905"
         style="stop-color:#b1b1b1;stop-opacity:1"
         offset="0.26238" />
      <stop
         id="stop2907"
         style="stop-color:#8e8e8e;stop-opacity:1"
         offset="0.66093999" />
      <stop
         id="stop2909"
         style="stop-color:#525252;stop-opacity:1"
         offset="1" />
    </linearGradient>
    <radialGradient
       cx="7.4956832"
       cy="8.4497671"
       r="19.99999"
       fx="7.4956832"
       fy="8.4497671"
       id="radialGradient2474"
       xlink:href="#linearGradient3242-52-665"
       gradientUnits="userSpaceOnUse"
       gradientTransform="matrix(0,1.4742091,-1.9732082,-6.2205769e-8,32.673221,-6.1767839)" />
    <linearGradient
       id="linearGradient3308-4-6-931-761">
      <stop
         id="stop2919"
         style="stop-color:#ffffff;stop-opacity:1"
         offset="0" />
      <stop
         id="stop2921"
         style="stop-color:#ffffff;stop-opacity:0"
         offset="1" />
    </linearGradient>
    <linearGradient
       x1="23.99999"
       y1="4.999989"
       x2="23.99999"
       y2="43"
       id="linearGradient2471"
       xlink:href="#linearGradient3308-4-6-931-761"
       gradientUnits="userSpaceOnUse"
       gradientTransform="matrix(0.6216218,0,0,0.6216214,1.0810803,2.0810865)" />
  </defs>
  <g
     id="layer1">
    <g
       transform="matrix(0.6999989,0,0,0.2796123,-0.7999806,17.85823)"
       id="g2036"
       style="display:inline">
      <g
         transform="matrix(1.052632,0,0,1.285713,-1.263158,-13.42854)"
         id="g3712"
         style="opacity:0.4">
        <rect
           width="5"
           height="7"
           x="38"
           y="40"
           id="rect2801"
           style="fill:url(#radialGradient2483);fill-opacity:1;stroke:none" />
        <rect
           width="5"
           height="7"
           x="-10"
           y="-47"
           transform="scale(-1,-1)"
           id="rect3696"
           style="fill:url(#radialGradient2485);fill-opacity:1;stroke:none" />
        <rect
           width="28"
           height="7.0000005"
           x="10"
           y="40"
           id="rect3700"
           style="fill:url(#linearGradient2487);fill-opacity:1;stroke:none" />
      </g>
    </g>
    <rect
       width="25.000002"
       height="25"
       rx="1.8164496"
       ry="1.8164496"
       x="3.5000002"
       y="4.5"
       id="rect5505"
       style="fill:url(#radialGradient2474);fill-opacity:1;stroke:url(#linearGradient2476);stroke-width:1;stroke-linecap:round;stroke-linejoin:round;stroke-miterlimit:4;stroke-dasharray:none;stroke-dashoffset:0;stroke-opacity:1" />
    <rect
       width="23"
       height="23"
       rx="0.84863389"
       ry="0.84863323"
       x="4.5"
       y="5.4999995"
       id="rect6741"
       style="opacity:0.4;fill:none;stroke:url(#linearGradient2471);stroke-width:0.9999997;stroke-linecap:round;stroke-linejoin:round;stroke-miterlimit:4;stroke-dasharray:none;stroke-dashoffset:0;stroke-opacity:1" />
    <path
       d="M 16.579363,21.069877 C 16.537313,19.585916 16.8736,18.145307 18.291731,17.124868 C 19.789641,15.970818 21.232246,14.526943 21.079793,12.824942 C 21.046505,11.183516 19.112007,9.8972786 17.027724,9.7123416 C 14.683246,9.3912416 11.846442,10.185278 11.060823,11.995406 C 10.662376,12.875791 11.031869,14.455304 12.369054,14.455304 C 13.151177,14.455304 13.510411,13.955817 13.569427,13.498905 C 13.61408,13.153192 13.470514,12.844473 13.38573,12.55891 C 13.289124,12.23353 13.701528,11.60291 14.150691,11.345971 C 14.52602,11.131266 14.918708,11.059273 14.976592,11.04552 C 16.324501,10.725267 17.668172,11.432663 18.228774,12.293652 C 18.789378,13.154642 18.172322,14.460597 17.28514,15.730587 C 16.397959,17.000575 15.445853,18.443025 15.449656,19.975143 C 15.449656,20.558422 15.397087,20.756575 15.434441,20.992553 C 15.464279,21.181095 16.095765,21.158311 16.579365,21.069877 L 16.579363,21.069877 z M 15.96422,23.067209 C 14.675407,22.998038 13.783369,24.442479 14.557624,25.362784 C 15.249071,26.37889 17.187728,26.128057 17.520013,24.977417 C 17.865468,24.082648 17.034123,23.052274 15.964221,23.067208 L 15.96422,23.067209 z"
       id="path3298"
       style="font-size:72px;font-style:normal;font-weight:bold;opacity:0.4;fill:#ffffff;fill-opacity:1;stroke:none;font-family:Standard Symbols L" />
    <path
       d="M 16.579363,20.069876 C 16.537313,18.585915 16.8736,17.145306 18.291731,16.124868 C 19.789641,14.970817 21.232246,13.526943 21.079793,11.824942 C 21.046505,10.183514 19.112007,8.8972775 17.027724,8.7123395 C 14.683246,8.3912415 11.846442,9.1852755 11.060823,10.995404 C 10.662376,11.875789 11.031869,13.455302 12.369054,13.455302 C 13.151177,13.455302 13.510411,12.955816 13.569427,12.498904 C 13.61408,12.153191 13.470514,11.844472 13.38573,11.558909 C 13.289124,11.233529 13.701528,10.602908 14.150691,10.345969 C 14.52602,10.131265 14.918708,10.059271 14.976592,10.045517 C 16.324501,9.7252635 17.668172,10.432663 18.228774,11.293653 C 18.789378,12.154642 18.172322,13.460595 17.28514,14.730585 C 16.397959,16.000574 15.445853,17.443024 15.449656,18.975142 C 15.449656,19.55842 15.397087,19.756572 15.434441,19.992552 C 15.464279,20.181094 16.095765,20.15831 16.579365,20.069876 L 16.579363,20.069876 z M 15.96422,22.067209 C 14.675407,21.998038 13.783369,23.442478 14.557624,24.362783 C 15.249071,25.378891 17.187728,25.128057 17.520013,23.977416 C 17.865468,23.082647 17.034123,22.052272 15.964221,22.067208 L 15.96422,22.067209 z"
       id="path9053"
       style="font-size:72px;font-style:normal;font-weight:bold;opacity:0.4;fill:#000000;fill-opacity:1;stroke:none;font-family:Standard Symbols L" />
  </g>
</svg>
